24x24/apps/blackmagicraw-player.svg

<svg height="24" width="24" xmlns="http://www.w3.org/2000/svg"><circle cx="12" cy="12.5" opacity=".2" r="10"/><circle cx="12" cy="12" fill="#17191e" r="10"/><path d="m12 2a10 10 0 0 0 -4 .84v18.3a10 10 0 0 0 4 .86 10 10 0 0 0 10-10 10 10 0 0 0 -10-10z" fill="#f4f4f7" opacity=".1"/><path d="m12 2a10 10 0 0 0 -10 10 10 10 0 0 0 .01.291 10 10 0 0 1 9.99-9.791 10 10 0 0 1 9.99 9.709 10 10 0 0 0 .01-.209 10 10 0 0 0 -10-10z" fill="#f4f4f7" opacity=".1"/><path d="m8.603 6.5a.59.592 0 0 0 -.603.592v10.816a.59.592 0 0 0 .884.513l4.66-2.703 4.661-2.705a.59.592 0 0 0 0-1.026l-4.661-2.703-4.66-2.705a.59.592 0 0 0 -.28-.079z" opacity=".2"/><path d="m8.603 6a.59.592 0 0 0 -.603.592v10.816a.59.592 0 0 0 .884.513l4.66-2.703 4.661-2.705a.59.592 0 0 0 0-1.026l-4.661-2.703-4.66-2.705a.59.592 0 0 0 -.28-.079z" fill="#ffa119"/><g fill="#313131"><rect height="2" rx=".5" width="2" x="9" y="3"/><rect height="2" rx=".5" width="2" x="9" y="11"/><rect height="2" rx=".5" width="2" x="9" y="15"/><rect height="2" rx=".5" width="2" x="9" y="19"/></g><path d="m8.604 6a.59.592 0 0 0 -.604.592v.5a.59.592 0 0 1 .604-.592.59.592 0 0 1 .28.08l4.66 2.704 4.661 2.703a.59.592 0 0 1 .24.264.59.592 0 0 0 -.24-.764l-4.661-2.703-4.66-2.705a.59.592 0 0 0 -.28-.079z" fill="#f4f4f7" opacity=".2"/><rect fill="#313131" height="2" rx=".5" width="2" x="9" y="7"/></svg>

<svg xmlns="http://www.w3.org/2000/svg" width="24" height="24"><circle style="opacity:.2" cx="12" cy="12.5" r="10"/><circle style="fill:#17191e" cx="12" cy="12" r="10"/><path style="opacity:.1;fill:#f4f4f7" d="M12 2a10 10 0 0 0-4 .84v18.3a10 10 0 0 0 4 .86 10 10 0 0 0 10-10A10 10 0 0 0 12 2z"/><path style="opacity:.1;fill:#f4f4f7" d="M12 2A10 10 0 0 0 2 12a10 10 0 0 0 .01.291A10 10 0 0 1 12 2.5a10 10 0 0 1 9.99 9.709A10 10 0 0 0 22 12 10 10 0 0 0 12 2z"/><path style="opacity:.2" d="M8.603 6.5A.59.592 0 0 0 8 7.092V17.908a.59.592 0 0 0 .884.513l4.66-2.703 4.661-2.705a.59.592 0 0 0 0-1.026l-4.661-2.703-4.66-2.705a.59.592 0 0 0-.28-.079z"/><path style="fill:#ffa119" d="M8.603 6A.59.592 0 0 0 8 6.592V17.408a.59.592 0 0 0 .884.513l4.66-2.703 4.661-2.705a.59.592 0 0 0 0-1.026l-4.661-2.703-4.66-2.705A.59.592 0 0 0 8.604 6z"/><rect style="fill:#313131" width="2" height="2" x="9" y="3" rx=".5" ry=".5"/><rect style="fill:#313131" width="2" height="2" x="9" y="11" rx=".5" ry=".5"/><rect style="fill:#313131" width="2" height="2" x="9" y="15" rx=".5" ry=".5"/><rect style="fill:#313131" width="2" height="2" x="9" y="19" rx=".5" ry=".5"/><path style="opacity:.2;fill:#f4f4f7" d="M8.604 6A.59.592 0 0 0 8 6.592v.5a.59.592 0 0 1 .604-.592.59.592 0 0 1 .28.08l4.66 2.704 4.661 2.703a.59.592 0 0 1 .24.264.59.592 0 0 0-.24-.764l-4.661-2.703-4.66-2.705A.59.592 0 0 0 8.604 6z"/><rect style="fill:#313131" width="2" height="2" x="9" y="7" rx=".5" ry=".5"/></svg>
